; generated by Slic3r 1.1.7 on 2015-04-05 at 13:57:53

; Kraken 01 Settings based on guidance: http://makezine.com/projects/getting-started-with-slic3r/

; perimeters extrusion width = 0.35mm
; infill extrusion width = 0.37mm
; solid infill extrusion width = 0.37mm
; top infill extrusion width = 0.37mm

G21 ; set units to millimeters
M190 S63 ; wait for bed temperature to be reached
M104 S195 ; set temperature
G28 ; home all axes
G1 Z5 F5000 ; lift nozzle
M109 S195 ; wait for temperature to be reached
G90 ; use absolute coordinates
G92 E0
M82 ; use absolute distances for extrusion
G1 F1800.000 E-0.95000
G1 Z0.700 F11400.000
G92 E0
G1 X59.498 Y71.179 F11400.000
G1 Z0.400 F11400.000
G1 E0.95000 F1800.000
G1 X60.804 Y70.310 E0.97402 F1620.000
G1 X61.056 Y70.224 E0.97810
G1 X61.956 Y70.064 E0.99210
G1 X87.334 Y69.064 E1.38099
G1 X92.887 Y69.082 E1.46603
G1 X93.956 Y69.252 E1.48259 F1620.000
G1 X95.091 Y69.538 E1.50052
G1 X96.122 Y69.906 E1.51729
G1 X96.786 Y70.231 E1.52861
G1 X97.487 Y70.637 E1.54101
G1 X98.147 Y71.105 E1.55339
G1 X98.784 Y71.669 E1.56643
G1 X99.247 Y72.159 E1.57675
G1 X99.634 Y72.647 E1.58628
G1 X100.271 Y73.714 E1.60532
G1 X109.643 Y94.718 E1.95750
G1 X109.934 Y96.083 E1.97887
G1 X109.934 Y99.366 E2.02914
G1 X109.540 Y100.942 E2.05402
G1 X108.451 Y102.148 E2.07890
G1 X107.217 Y102.656 E2.09933
G1 X89.507 Y106.000 E2.37530
G1 X87.434 Y106.000 E2.40704
G1 X84.959 Y105.954 E2.44494
G1 X71.333 Y103.686 E2.65647
G1 X67.844 Y102.928 E2.71113
G1 X66.388 Y102.208 E2.73601
G1 X65.408 Y100.802 E2.76225
G1 X58.651 Y82.259 E3.06444
G1 X58.530 Y81.773 E3.07212
G1 X58.377 Y80.591 E3.09036
G1 X58.424 Y73.664 E3.19643
G1 X58.649 Y72.565 E3.21361
G1 X59.384 Y71.302 E3.23598
G1 X59.462 Y71.218 E3.23775
G1 F1800.000 E2.28775
G1 Z0.700 F11400.000
G92 E0
G1 X71.327 Y75.614 F11400.000
G1 Z0.400 F11400.000
G1 E0.95000 F1800.000
G1 X61.364 Y75.614 E1.10256 F1620.000
G1 X60.852 Y75.102 E1.11366
G1 X60.852 Y74.190 E1.12761
G1 X60.975 Y73.433 E1.13937
G1 X61.037 Y73.222 E1.14274
G1 X61.134 Y73.055 E1.14570
G1 X61.385 Y72.784 E1.15134
G1 X61.557 Y72.669 E1.15452
G1 X61.884 Y72.558 E1.15980
G1 X62.019 Y72.536 E1.16190
G1 X65.940 Y72.536 E1.22193
G1 X71.097 Y72.267 E1.30101
G1 X87.317 Y71.539 E1.54962
G1 X91.591 Y71.539 E1.61506
G1 X92.414 Y71.520 E1.62766
G1 X93.379 Y71.658 E1.64260
G1 X93.852 Y71.786 E1.65009
G1 X94.210 Y71.854 E1.65568
G1 X94.589 Y72.008 E1.66195
G1 X95.054 Y72.142 E1.66936
G1 X95.606 Y72.406 E1.67872
G1 X96.079 Y72.673 E1.68704
G1 X96.545 Y72.990 E1.69567
G1 X96.958 Y73.339 E1.70396
G1 X97.542 Y73.970 E1.71711
G1 X97.974 Y74.648 E1.72942
G1 X98.185 Y75.171 E1.73806
G1 X98.358 Y75.774 E1.74767
G1 X98.468 Y76.732 E1.76244
G1 X98.463 Y78.159 E1.78428
G1 X98.343 Y79.115 E1.79903
G1 X98.196 Y79.613 E1.80699
G1 X98.012 Y80.091 E1.81483
G1 X97.542 Y80.847 E1.82846
G1 X96.957 Y81.478 E1.84163
G1 X96.469 Y81.884 E1.85136
G1 X95.811 Y82.300 E1.86328
G1 X95.139 Y82.640 E1.87481
G1 X94.589 Y82.810 E1.88362
G1 X94.209 Y82.964 E1.88990
G1 X93.849 Y83.032 E1.89550
G1 X93.376 Y83.157 E1.90300
G1 X92.495 Y83.290 E1.91665
G1 X87.317 Y83.275 E1.99594
G1 X71.097 Y82.549 E2.24454
G1 X65.940 Y82.281 E2.32362
G1 X62.016 Y82.281 E2.38370
G1 X61.875 Y82.257 E2.38589
G1 X61.677 Y82.190 E2.38909
G1 X61.551 Y82.142 E2.39115
G1 X61.386 Y82.031 E2.39419
G1 X61.137 Y81.766 E2.39976
G1 X61.038 Y81.598 E2.40275
G1 X60.975 Y81.385 E2.40615
G1 X60.858 Y80.702 E2.41676
G1 X60.852 Y79.715 E2.43188
G1 X61.364 Y79.202 E2.44298
G1 X71.327 Y79.202 E2.59554
G1 X71.532 Y79.000 E2.59994
G1 X71.540 Y78.322 E2.61033
G1 X72.051 Y77.816 E2.62134
G1 X81.265 Y77.816 E2.76243
G1 X81.471 Y77.611 E2.76687
G1 X81.471 Y77.205 E2.77309
G1 X81.265 Y77.000 E2.77753
G1 X72.051 Y77.000 E2.91862
G1 X71.540 Y76.495 E2.92963
G1 X71.532 Y75.817 E2.94002
G1 X71.365 Y75.651 E2.94362
G1 X71.678 Y75.264 F11400.000
G1 X61.509 Y75.264 E3.09932 F1620.000
G1 X61.202 Y74.957 E3.10598
G1 X61.202 Y74.205 E3.11749
G1 X61.318 Y73.503 E3.12838
G1 X61.359 Y73.364 E3.13061
G1 X61.417 Y73.264 E3.13238
G1 X61.613 Y73.053 E3.13679
G1 X61.717 Y72.984 E3.13870
G1 X62.047 Y72.886 E3.14397
G1 X65.949 Y72.886 E3.20372
G1 X71.113 Y72.617 E3.28291
G1 X87.328 Y71.889 E3.53144
G1 X91.593 Y71.889 E3.59674
G1 X92.407 Y71.870 E3.60921
G1 X93.301 Y72.000 E3.62305
G1 X93.774 Y72.127 E3.63054
G1 X94.125 Y72.194 E3.63602
G1 X94.469 Y72.337 E3.64172
G1 X94.940 Y72.473 E3.64922
G1 X95.443 Y72.716 E3.65778
G1 X95.892 Y72.969 E3.66567
G1 X96.326 Y73.264 E3.67370
G1 X96.714 Y73.591 E3.68148
G1 X97.257 Y74.173 E3.69367
G1 X97.669 Y74.820 E3.70542
G1 X97.856 Y75.290 E3.71315
G1 X98.012 Y75.831 E3.72178
G1 X98.119 Y76.755 E3.73601
G1 X98.114 Y78.129 E3.75706
G1 X98.003 Y79.029 E3.77095
G1 X97.862 Y79.507 E3.77858
G1 X97.692 Y79.949 E3.78583
G1 X97.257 Y80.643 E3.79837
G1 X96.713 Y81.226 E3.81057
G1 X96.278 Y81.590 E3.81926
G1 X95.640 Y81.994 E3.83083
G1 X94.991 Y82.323 E3.84198
G1 X94.469 Y82.481 E3.85032
G1 X94.125 Y82.624 E3.85602
G1 X93.772 Y82.690 E3.86152
G1 X93.300 Y82.815 E3.86901
G1 X92.456 Y82.942 E3.88207
G1 X91.593 Y82.926 E3.89528
G1 X87.328 Y82.926 E3.96058
G1 X71.114 Y82.199 E4.20912
G1 X65.949 Y81.931 E4.28831
G1 X62.045 Y81.931 E4.34808
G1 X61.799 Y81.862 E4.35200
G1 X61.614 Y81.763 E4.35521
G1 X61.419 Y81.555 E4.35957
G1 X61.360 Y81.454 E4.36136
G1 X61.318 Y81.314 E4.36360
G1 X61.205 Y80.658 E4.37379
G1 X61.202 Y79.860 E4.38601
G1 X61.509 Y79.552 E4.39267
G1 X71.678 Y79.552 E4.54837
G1 X71.883 Y79.347 E4.55281
G1 X71.888 Y78.470 E4.56625
G1 X72.195 Y78.166 E4.57286
G1 X81.615 Y78.166 E4.71711
G1 X81.821 Y77.961 E4.72155
G1 X81.821 Y76.855 E4.73849
G1 X81.615 Y76.650 E4.74293
G1 X72.195 Y76.650 E4.88718
G1 X71.888 Y76.347 E4.89378
G1 X71.883 Y75.469 E4.90722
G1 X71.715 Y75.302 E4.91086
G1 X72.028 Y74.914 F11400.000
G1 X61.654 Y74.914 E5.06970 F1620.000
G1 X61.552 Y74.812 E5.07192
G1 X61.552 Y74.220 E5.08098
G1 X61.663 Y73.562 E5.09120
G1 X61.700 Y73.474 E5.09267
G1 X61.842 Y73.321 E5.09585
G1 X62.074 Y73.236 E5.09964
G1 X65.958 Y73.236 E5.15911
G1 X71.130 Y72.966 E5.23841
G1 X87.340 Y72.239 E5.48688
G1 X91.596 Y72.239 E5.55204
G1 X92.400 Y72.220 E5.56437
G1 X93.224 Y72.341 E5.57711
G1 X93.695 Y72.469 E5.58459
G1 X94.041 Y72.534 E5.58997
G1 X94.349 Y72.667 E5.59511
G1 X94.825 Y72.804 E5.60269
G1 X95.280 Y73.025 E5.61044
G1 X95.705 Y73.265 E5.61790
G1 X96.106 Y73.537 E5.62534
G1 X96.470 Y73.842 E5.63261
G1 X96.972 Y74.377 E5.64383
G1 X97.364 Y74.993 E5.65502
G1 X97.529 Y75.416 E5.66197
G1 X97.666 Y75.889 E5.66951
G1 X97.770 Y76.777 E5.68320
G1 X97.765 Y78.099 E5.70344
G1 X97.663 Y78.944 E5.71648
G1 X97.529 Y79.401 E5.72377
G1 X97.372 Y79.807 E5.73043
G1 X96.972 Y80.440 E5.74190
G1 X96.470 Y80.974 E5.75313
G1 X96.087 Y81.295 E5.76078
G1 X95.469 Y81.689 E5.77199
G1 X94.844 Y82.005 E5.78272
G1 X94.349 Y82.151 E5.79063
G1 X94.040 Y82.283 E5.79576
G1 X93.695 Y82.349 E5.80114
G1 X93.223 Y82.474 E5.80862
G1 X92.400 Y82.594 E5.82135
G1 X91.596 Y82.576 E5.83368
G1 X87.340 Y82.576 E5.89884
G1 X71.130 Y81.850 E6.14731
G1 X65.958 Y81.581 E6.22660
G1 X62.074 Y81.581 E6.28608
G1 X61.920 Y81.533 E6.28854
G1 X61.842 Y81.494 E6.28988
G1 X61.681 Y81.310 E6.29362
G1 X61.553 Y80.614 E6.30447
G1 X61.552 Y80.005 E6.31379
G1 X61.654 Y79.902 E6.31601
G1 X72.028 Y79.902 E6.47485
G1 X72.233 Y79.697 E6.47929
G1 X72.236 Y78.618 E6.49582
G1 X72.339 Y78.516 E6.49803
G1 X81.965 Y78.516 E6.64544
G1 X82.171 Y78.311 E6.64987
G1 X82.171 Y76.505 E6.67753
G1 X81.965 Y76.300 E6.68197
G1 X72.339 Y76.300 E6.82938
G1 X72.236 Y76.199 E6.83158
G1 X72.233 Y75.119 E6.84812
G1 X72.065 Y74.952 E6.85175
G1 F1800.000 E5.90175
G1 Z0.700 F11400.000
G92 E0
G1 X95.959 Y100.827 F11400.000
G1 Z0.400 F11400.000
G1 E0.95000 F1800.000
G1 X95.764 Y100.992 E0.95392 F1620.000
G1 X95.702 Y101.354 E0.95954
G1 X95.577 Y101.647 E0.96442
G1 X95.507 Y101.750 E0.96632
G1 X95.287 Y101.988 E0.97129
G1 X95.153 Y102.087 E0.97384
G1 X94.892 Y102.201 E0.97819
G1 X91.911 Y102.986 E1.02541
G1 X89.585 Y103.525 E1.06196
G1 X85.459 Y103.525 E1.12514
G1 X82.866 Y102.936 E1.16585
G1 X80.094 Y102.199 E1.20977
G1 X79.840 Y102.077 E1.21409
G1 X79.721 Y101.986 E1.21639
G1 X79.506 Y101.753 E1.22124
G1 X79.306 Y101.392 E1.22756
G1 X79.137 Y101.287 E1.23060
G1 X71.681 Y101.287 E1.34477
G1 X71.169 Y100.775 E1.35586
G1 X71.169 Y100.734 E1.35649
G1 X70.964 Y100.529 E1.36092
G1 X68.193 Y100.529 E1.40335
G1 X67.680 Y100.017 E1.41445
G1 X67.680 Y99.102 E1.42846
G1 X68.193 Y98.589 E1.43956
G1 X70.962 Y98.589 E1.48196
G1 X71.167 Y98.384 E1.48641
G1 X71.167 Y98.319 E1.48739
G1 X71.606 Y97.881 E1.49689
G1 X71.605 Y97.591 E1.50133
G1 X71.017 Y97.002 E1.51407
G1 X70.888 Y96.949 E1.51621
G1 X68.193 Y96.949 E1.55747
G1 X67.680 Y96.437 E1.56857
G1 X67.680 Y95.521 E1.58258
G1 X68.193 Y95.009 E1.59368
G1 X70.958 Y95.009 E1.63603
G1 X71.164 Y94.804 E1.64047
G1 X71.163 Y94.753 E1.64125
G1 X71.676 Y94.240 E1.65236
G1 X79.133 Y94.240 E1.76653
G1 X79.302 Y94.135 E1.76958
G1 X79.506 Y93.765 E1.77605
G1 X79.720 Y93.532 E1.78090
G1 X79.839 Y93.441 E1.78319
G1 X80.095 Y93.318 E1.78755
G1 X82.617 Y92.739 E1.82715
G1 X85.342 Y92.028 E1.87028
G1 X85.453 Y92.014 E1.87199
G1 X89.586 Y92.014 E1.93528
G1 X92.380 Y92.753 E1.97953
G1 X94.679 Y93.290 E2.01569
G1 X94.840 Y93.313 E2.01817
G1 X95.061 Y93.378 E2.02170
G1 X95.263 Y93.503 E2.02534
G1 X95.507 Y93.769 E2.03086
G1 X95.578 Y93.871 E2.03276
G1 X95.705 Y94.170 E2.03774
G1 X95.766 Y94.532 E2.04337
G1 X95.962 Y94.698 E2.04729
G1 X103.329 Y94.698 E2.16009
G1 X103.785 Y95.155 E2.16998
G1 X103.914 Y95.208 E2.17211
G1 X106.947 Y95.208 E2.21855
G1 X107.459 Y95.721 E2.22965
G1 X107.459 Y96.636 E2.24366
G1 X106.947 Y97.148 E2.25476
G1 X103.918 Y97.148 E2.30113
G1 X103.790 Y97.201 E2.30326
G1 X103.400 Y97.591 E2.31170
G1 X103.400 Y97.881 E2.31614
G1 X103.766 Y98.247 E2.32408
G1 X103.895 Y98.301 E2.32621
G1 X106.947 Y98.301 E2.37293
G1 X107.459 Y98.813 E2.38403
G1 X107.459 Y99.728 E2.39804
G1 X106.947 Y100.241 E2.40914
G1 X103.985 Y100.241 E2.45449
G1 X103.857 Y100.294 E2.45662
G1 X103.323 Y100.827 E2.46817
G1 X96.012 Y100.827 E2.58012
G1 X95.664 Y100.477 F11400.000
G1 X95.468 Y100.642 E2.58404 F1620.000
G1 X95.361 Y101.270 E2.59380
G1 X95.275 Y101.469 E2.59711
G1 X95.052 Y101.726 E2.60233
G1 X94.971 Y101.786 E2.60386
G1 X94.792 Y101.865 E2.60686
G1 X91.824 Y102.647 E2.65386
G1 X89.554 Y103.175 E2.68955
G1 X85.479 Y103.175 E2.75195
G1 X82.948 Y102.596 E2.79171
G1 X80.205 Y101.866 E2.83517
G1 X79.958 Y101.726 E2.83951
G1 X79.780 Y101.534 E2.84353
G1 X79.675 Y101.348 E2.84680
G1 X79.622 Y101.102 E2.85064
G1 X79.427 Y100.937 E2.85456
G1 X71.826 Y100.937 E2.97094
G1 X71.519 Y100.630 E2.97759
G1 X71.519 Y100.384 E2.98136
G1 X71.314 Y100.179 E2.98579
G1 X68.338 Y100.179 E3.03136
G1 X68.030 Y99.872 E3.03802
G1 X68.030 Y99.247 E3.04759
G1 X68.338 Y98.939 E3.05425
G1 X71.312 Y98.939 E3.09979
G1 X71.517 Y98.734 E3.10424
G1 X71.517 Y98.464 E3.10837
G1 X71.825 Y98.156 E3.11503
G1 X79.208 Y98.156 E3.22808
G1 X79.413 Y97.951 E3.23252
G1 X79.413 Y97.518 E3.23915
G1 X79.208 Y97.313 E3.24359
G1 X71.823 Y97.313 E3.35668
G1 X71.515 Y97.006 E3.36333
G1 X71.515 Y96.804 E3.36642
G1 X71.310 Y96.599 E3.37086
G1 X68.338 Y96.599 E3.41637
G1 X68.030 Y96.292 E3.42303
G1 X68.030 Y95.666 E3.43260
G1 X68.338 Y95.359 E3.43926
G1 X71.309 Y95.359 E3.48475
G1 X71.514 Y95.154 E3.48919
G1 X71.514 Y94.897 E3.49311
G1 X71.821 Y94.590 E3.49977
G1 X79.423 Y94.590 E3.61618
G1 X79.619 Y94.424 E3.62010
G1 X79.672 Y94.176 E3.62399
G1 X79.780 Y93.984 E3.62736
G1 X79.957 Y93.791 E3.63137
G1 X80.206 Y93.650 E3.63575
G1 X82.699 Y93.079 E3.67492
G1 X85.409 Y92.373 E3.71779
G1 X89.554 Y92.364 E3.78127
G1 X92.295 Y93.093 E3.82469
G1 X94.917 Y93.700 E3.86590
G1 X95.038 Y93.776 E3.86808
G1 X95.275 Y94.049 E3.87363
G1 X95.364 Y94.253 E3.87704
G1 X95.464 Y94.874 E3.88667
G1 X95.662 Y95.048 E3.89070
G1 X103.183 Y95.048 E4.00587
G1 X103.640 Y95.505 E4.01576
G1 X103.769 Y95.558 E4.01789
G1 X106.802 Y95.558 E4.06433
G1 X107.109 Y95.866 E4.07099
G1 X107.109 Y96.491 E4.08056
G1 X106.802 Y96.798 E4.08722
G1 X103.694 Y96.798 E4.13480
G1 X103.182 Y97.314 E4.14593
G1 X95.805 Y97.314 E4.25889
G1 X95.600 Y97.519 E4.26333
G1 X95.600 Y97.950 E4.26994
G1 X95.805 Y98.155 E4.27438
G1 X103.180 Y98.155 E4.38730
G1 X103.621 Y98.597 E4.39687
G1 X103.750 Y98.651 E4.39900
G1 X106.802 Y98.651 E4.44573
G1 X107.109 Y98.958 E4.45239
G1 X107.109 Y99.583 E4.46196
G1 X106.802 Y99.891 E4.46862
G1 X103.691 Y99.891 E4.51625
G1 X103.486 Y100.096 E4.52069
G1 X103.486 Y100.170 E4.52183
G1 X103.178 Y100.477 E4.52848
G1 X95.716 Y100.477 E4.64274
G1 X95.316 Y100.127 F11400.000
G1 X95.111 Y100.332 E4.64718 F1620.000
G1 X95.100 Y100.715 E4.65304
G1 X95.013 Y101.211 E4.66076
G1 X94.959 Y101.311 E4.66250
G1 X94.817 Y101.465 E4.66570
G1 X94.693 Y101.529 E4.66785
G1 X91.737 Y102.308 E4.71465
G1 X89.523 Y102.825 E4.74947
G1 X85.499 Y102.825 E4.81108
G1 X83.027 Y102.255 E4.84993
G1 X80.315 Y101.534 E4.89289
G1 X80.195 Y101.467 E4.89500
G1 X80.040 Y101.294 E4.89855
G1 X79.992 Y101.190 E4.90031
G1 X79.918 Y100.752 E4.90711
G1 X79.722 Y100.587 E4.91103
G1 X71.971 Y100.587 E5.02971
G1 X71.869 Y100.485 E5.03193
G1 X71.868 Y100.034 E5.03883
G1 X71.663 Y99.829 E5.04327
G1 X68.483 Y99.829 E5.09197
G1 X68.380 Y99.727 E5.09419
G1 X68.380 Y99.392 E5.09932
G1 X68.483 Y99.289 E5.10154
G1 X71.663 Y99.289 E5.15023
G1 X71.868 Y99.084 E5.15467
G1 X71.867 Y98.609 E5.16194
G1 X71.970 Y98.506 E5.16416
G1 X79.558 Y98.506 E5.28035
G1 X79.763 Y98.301 E5.28479
G1 X79.763 Y97.168 E5.30214
G1 X79.558 Y96.963 E5.30658
G1 X71.967 Y96.963 E5.42281
G1 X71.865 Y96.860 E5.42503
G1 X71.865 Y96.454 E5.43125
G1 X71.660 Y96.249 E5.43569
G1 X68.483 Y96.249 E5.48433
G1 X68.380 Y96.147 E5.48655
G1 X68.380 Y95.811 E5.49168
G1 X68.483 Y95.709 E5.49390
G1 X71.659 Y95.709 E5.54253
G1 X71.864 Y95.504 E5.54698
G1 X71.864 Y95.042 E5.55404
G1 X71.966 Y94.940 E5.55626
G1 X79.719 Y94.940 E5.67498
G1 X79.915 Y94.774 E5.67890
G1 X79.989 Y94.334 E5.68574
G1 X80.040 Y94.223 E5.68760
G1 X80.195 Y94.051 E5.69115
G1 X80.317 Y93.983 E5.69330
G1 X82.782 Y93.419 E5.73202
G1 X85.475 Y92.717 E5.77463
G1 X89.523 Y92.714 E5.83661
G1 X92.210 Y93.432 E5.87920
G1 X94.772 Y94.023 E5.91946
G1 X94.959 Y94.207 E5.92348
G1 X95.016 Y94.313 E5.92531
G1 X95.100 Y94.794 E5.93280
G1 X95.112 Y95.192 E5.93891
G1 X95.317 Y95.398 E5.94335
G1 X103.038 Y95.398 E6.06157
G1 X103.141 Y95.500 E6.06379
G1 X103.141 Y95.703 E6.06689
G1 X103.346 Y95.908 E6.07133
G1 X106.657 Y95.908 E6.12203
G1 X106.759 Y96.010 E6.12425
G1 X106.759 Y96.346 E6.12938
G1 X106.657 Y96.448 E6.13160
G1 X103.345 Y96.448 E6.18232
G1 X103.140 Y96.653 E6.18675
G1 X103.139 Y96.861 E6.18995
G1 X103.037 Y96.964 E6.19216
G1 X95.455 Y96.964 E6.30826
G1 X95.250 Y97.169 E6.31270
G1 X95.250 Y98.300 E6.33003
G1 X95.455 Y98.505 E6.33447
G1 X103.035 Y98.505 E6.45053
G1 X103.137 Y98.608 E6.45275
G1 X103.137 Y98.795 E6.45562
G1 X103.342 Y99.001 E6.46006
G1 X106.657 Y99.001 E6.51082
G1 X106.759 Y99.103 E6.51304
G1 X106.759 Y99.438 E6.51817
G1 X106.657 Y99.541 E6.52039
G1 X103.341 Y99.541 E6.57116
G1 X103.136 Y99.746 E6.57559
G1 X103.136 Y100.025 E6.57987
G1 X103.033 Y100.127 E6.58209
G1 X95.369 Y100.127 E6.69944
G1 F1800.000 E5.74944
G1 Z0.700 F11400.000
G92 E0
G1 X72.039 Y95.979 F11400.000
G1 Z0.400 F11400.000
G1 E0.95000 F1800.000
G1 X68.555 Y95.979 E1.00335 F945.000
G1 F1800.000 E0.05335
G1 Z0.700 F11400.000
G92 E0
G1 X106.584 Y96.178 F11400.000
G1 Z0.400 F11400.000
G1 E0.95000 F1800.000
G1 X102.965 Y96.178 E1.00541 F945.000
G1 F1800.000 E0.05541
G1 Z0.700 F11400.000
G92 E0
G1 X106.584 Y99.271 F11400.000
G1 Z0.400 F11400.000
G1 E0.95000 F1800.000
G1 X103.057 Y99.271 E1.00401 F945.000
G1 X102.962 Y99.176 E1.00607
G1 F1800.000 E0.05607
G1 Z0.700 F11400.000
G92 E0
G1 X68.555 Y99.559 F11400.000
G1 Z0.400 F11400.000
G1 E0.95000 F1800.000
G1 X72.043 Y99.559 E1.00340 F945.000
G1 F1800.000 E0.05340
G1 Z0.700 F11400.000
G92 E0
G1 X94.761 Y99.777 F11400.000
G1 Z0.400 F11400.000
G1 E0.95000 F1800.000
G1 X94.753 Y100.671 E0.96369 F945.000
G1 X94.681 Y101.096 E0.97029
G1 X94.591 Y101.193 E0.97232
G1 X91.651 Y101.969 E1.01888
G1 X89.479 Y102.475 E1.05303
G1 X85.529 Y102.475 E1.11351
