; generated by Slic3r 1.1.7 on 2015-04-05 at 13:49:13

; Kraken 01 Settings based on guidance: http://makezine.com/projects/getting-started-with-slic3r/

; perimeters extrusion width = 0.35mm
; infill extrusion width = 0.37mm
; solid infill extrusion width = 0.37mm
; top infill extrusion width = 0.37mm

G21 ; set units to millimeters
M190 S63 ; wait for bed temperature to be reached
M104 S195 ; set temperature
G28 ; home all axes
G1 Z5 F5000 ; lift nozzle
M109 S195 ; wait for temperature to be reached
G90 ; use absolute coordinates
G92 E0
M82 ; use absolute distances for extrusion
G1 F1800.000 E-0.95000
G1 Z0.700 F11400.000
G92 E0
G1 X65.608 Y72.109 F11400.000
G1 Z0.400 F11400.000
G1 E0.95000 F1800.000
G1 X67.078 Y71.318 E0.97556 F1620.000
G1 X85.509 Y66.878 E1.26585
G1 X86.559 Y66.878 E1.28193
G1 X89.530 Y66.878 E1.32742 F1620.000
G1 X90.412 Y66.996 E1.34105
G1 X108.004 Y71.797 E1.62028
G1 X109.421 Y72.592 E1.64516
G1 X110.298 Y73.960 E1.67004
G1 X110.473 Y75.029 E1.68663
G1 X110.472 Y79.409 E1.75369
G1 X110.078 Y80.985 E1.77857
G1 X108.650 Y82.389 E1.80923
G1 X63.547 Y105.514 E2.58534
G1 X62.152 Y105.880 E2.60742
G1 X61.710 Y105.898 E2.61420
G1 X60.119 Y105.567 E2.63908
G1 X58.871 Y104.526 E2.66396
G1 X58.226 Y102.550 E2.69579
G1 X58.226 Y92.637 E2.84758
G1 X58.413 Y91.534 E2.86471
G1 X64.716 Y73.467 E3.15771
G1 X65.579 Y72.152 E3.18179
G1 F1800.000 E2.23179
G1 Z0.700 F11400.000
G92 E0
G1 X95.959 Y80.284 F11400.000
G1 Z0.400 F11400.000
G1 E0.95000 F1800.000
G1 X95.764 Y80.450 E0.95392 F1620.000
G1 X95.702 Y80.811 E0.95954
G1 X95.577 Y81.105 E0.96442
G1 X95.507 Y81.207 E0.96632
G1 X95.287 Y81.445 E0.97129
G1 X95.153 Y81.544 E0.97384
G1 X94.892 Y81.658 E0.97819
G1 X91.911 Y82.444 E1.02541
G1 X89.585 Y82.982 E1.06196
G1 X85.459 Y82.982 E1.12514
G1 X82.866 Y82.393 E1.16585
G1 X80.094 Y81.656 E1.20977
G1 X79.840 Y81.534 E1.21409
G1 X79.721 Y81.443 E1.21639
G1 X79.506 Y81.210 E1.22124
G1 X79.306 Y80.849 E1.22756
G1 X79.137 Y80.744 E1.23060
G1 X71.681 Y80.744 E1.34477
G1 X71.169 Y80.232 E1.35586
G1 X71.169 Y80.191 E1.35649
G1 X70.964 Y79.986 E1.36092
G1 X68.193 Y79.986 E1.40335
G1 X67.680 Y79.474 E1.41445
G1 X67.680 Y78.559 E1.42846
G1 X68.193 Y78.046 E1.43956
G1 X70.962 Y78.046 E1.48196
G1 X71.167 Y77.841 E1.48641
G1 X71.167 Y77.776 E1.48739
G1 X71.606 Y77.338 E1.49689
G1 X71.605 Y77.048 E1.50133
G1 X71.017 Y76.459 E1.51407
G1 X70.888 Y76.406 E1.51621
G1 X68.193 Y76.406 E1.55747
G1 X67.680 Y75.894 E1.56857
G1 X67.680 Y74.979 E1.58258
G1 X68.193 Y74.466 E1.59368
G1 X70.958 Y74.466 E1.63603
G1 X71.164 Y74.261 E1.64047
G1 X71.163 Y74.210 E1.64125
G1 X71.676 Y73.697 E1.65236
G1 X79.133 Y73.697 E1.76653
G1 X79.302 Y73.592 E1.76958
G1 X79.506 Y73.222 E1.77605
G1 X79.720 Y72.989 E1.78089
G1 X79.839 Y72.898 E1.78319
G1 X80.095 Y72.775 E1.78755
G1 X82.617 Y72.196 E1.82715
G1 X85.342 Y71.486 E1.87028
G1 X85.453 Y71.471 E1.87199
G1 X89.586 Y71.471 E1.93528
G1 X92.380 Y72.210 E1.97953
G1 X94.679 Y72.747 E2.01569
G1 X94.840 Y72.770 E2.01817
G1 X95.061 Y72.835 E2.02170
G1 X95.263 Y72.961 E2.02534
G1 X95.507 Y73.226 E2.03086
G1 X95.578 Y73.328 E2.03276
G1 X95.705 Y73.627 E2.03774
G1 X95.766 Y73.989 E2.04337
G1 X95.962 Y74.155 E2.04729
G1 X103.329 Y74.155 E2.16009
G1 X103.785 Y74.612 E2.16998
G1 X103.914 Y74.665 E2.17211
G1 X106.947 Y74.665 E2.21855
G1 X107.459 Y75.178 E2.22965
G1 X107.459 Y76.093 E2.24366
G1 X106.947 Y76.605 E2.25476
G1 X103.918 Y76.605 E2.30113
G1 X103.790 Y76.658 E2.30326
G1 X103.400 Y77.048 E2.31170
G1 X103.400 Y77.338 E2.31614
G1 X103.766 Y77.705 E2.32408
G1 X103.895 Y77.758 E2.32621
G1 X106.947 Y77.758 E2.37293
G1 X107.459 Y78.270 E2.38403
G1 X107.459 Y79.185 E2.39804
G1 X106.947 Y79.698 E2.40914
G1 X103.985 Y79.698 E2.45449
G1 X103.857 Y79.751 E2.45662
G1 X103.323 Y80.284 E2.46817
G1 X96.012 Y80.284 E2.58012
G1 X95.664 Y79.934 F11400.000
G1 X95.468 Y80.100 E2.58404 F1620.000
G1 X95.361 Y80.728 E2.59380
G1 X95.275 Y80.926 E2.59711
G1 X95.052 Y81.184 E2.60233
G1 X94.972 Y81.243 E2.60386
G1 X94.792 Y81.322 E2.60686
G1 X91.824 Y82.105 E2.65386
G1 X89.554 Y82.632 E2.68955
G1 X85.479 Y82.632 E2.75195
G1 X82.948 Y82.053 E2.79170
G1 X80.205 Y81.324 E2.83517
G1 X79.958 Y81.183 E2.83951
G1 X79.780 Y80.991 E2.84353
G1 X79.675 Y80.805 E2.84679
G1 X79.622 Y80.559 E2.85064
G1 X79.427 Y80.394 E2.85456
G1 X71.826 Y80.394 E2.97094
G1 X71.519 Y80.087 E2.97759
G1 X71.519 Y79.841 E2.98136
G1 X71.314 Y79.636 E2.98579
G1 X68.338 Y79.636 E3.03136
G1 X68.030 Y79.329 E3.03802
G1 X68.030 Y78.704 E3.04759
G1 X68.338 Y78.396 E3.05425
G1 X71.312 Y78.396 E3.09979
G1 X71.517 Y78.191 E3.10424
G1 X71.517 Y77.921 E3.10837
G1 X71.825 Y77.613 E3.11503
G1 X79.208 Y77.613 E3.22808
G1 X79.413 Y77.408 E3.23252
G1 X79.413 Y76.975 E3.23915
G1 X79.208 Y76.770 E3.24359
G1 X71.823 Y76.770 E3.35668
G1 X71.515 Y76.463 E3.36333
G1 X71.515 Y76.261 E3.36642
G1 X71.310 Y76.056 E3.37086
G1 X68.338 Y76.056 E3.41637
G1 X68.030 Y75.749 E3.42303
G1 X68.030 Y75.124 E3.43260
G1 X68.338 Y74.816 E3.43926
G1 X71.309 Y74.816 E3.48474
G1 X71.514 Y74.611 E3.48919
G1 X71.514 Y74.355 E3.49311
G1 X71.821 Y74.047 E3.49977
G1 X79.423 Y74.047 E3.61618
G1 X79.619 Y73.881 E3.62010
G1 X79.672 Y73.633 E3.62399
G1 X79.780 Y73.441 E3.62736
G1 X79.957 Y73.249 E3.63137
G1 X80.206 Y73.107 E3.63575
G1 X82.699 Y72.537 E3.67492
G1 X85.409 Y71.830 E3.71779
G1 X89.554 Y71.821 E3.78127
G1 X92.295 Y72.550 E3.82469
G1 X94.917 Y73.157 E3.86590
G1 X95.038 Y73.233 E3.86808
G1 X95.275 Y73.506 E3.87363
G1 X95.364 Y73.711 E3.87704
G1 X95.464 Y74.332 E3.88667
G1 X95.662 Y74.505 E3.89070
G1 X103.183 Y74.505 E4.00587
G1 X103.640 Y74.962 E4.01576
G1 X103.769 Y75.015 E4.01789
G1 X106.802 Y75.015 E4.06433
G1 X107.109 Y75.323 E4.07099
G1 X107.109 Y75.948 E4.08056
G1 X106.802 Y76.255 E4.08722
G1 X103.694 Y76.255 E4.13480
G1 X103.182 Y76.771 E4.14593
G1 X95.805 Y76.771 E4.25889
G1 X95.600 Y76.976 E4.26333
G1 X95.600 Y77.407 E4.26994
G1 X95.805 Y77.612 E4.27438
G1 X103.180 Y77.612 E4.38730
G1 X103.621 Y78.055 E4.39687
G1 X103.750 Y78.108 E4.39900
G1 X106.802 Y78.108 E4.44573
G1 X107.109 Y78.415 E4.45239
G1 X107.109 Y79.041 E4.46196
G1 X106.802 Y79.348 E4.46862
G1 X103.691 Y79.348 E4.51625
G1 X103.486 Y79.553 E4.52069
G1 X103.486 Y79.627 E4.52183
G1 X103.178 Y79.934 E4.52848
G1 X95.716 Y79.934 E4.64274
G1 X95.316 Y79.584 F11400.000
G1 X95.111 Y79.789 E4.64718 F1620.000
G1 X95.100 Y80.172 E4.65304
G1 X95.013 Y80.668 E4.66076
G1 X94.959 Y80.768 E4.66250
G1 X94.817 Y80.922 E4.66570
G1 X94.693 Y80.986 E4.66785
G1 X91.737 Y81.765 E4.71465
G1 X89.523 Y82.282 E4.74947
G1 X85.499 Y82.282 E4.81108
G1 X83.027 Y81.712 E4.84993
G1 X80.315 Y80.991 E4.89289
G1 X80.195 Y80.924 E4.89500
G1 X80.040 Y80.751 E4.89855
G1 X79.992 Y80.647 E4.90031
G1 X79.918 Y80.209 E4.90711
G1 X79.722 Y80.044 E4.91103
G1 X71.971 Y80.044 E5.02971
G1 X71.869 Y79.942 E5.03193
G1 X71.868 Y79.491 E5.03883
G1 X71.663 Y79.286 E5.04327
G1 X68.483 Y79.286 E5.09197
G1 X68.380 Y79.184 E5.09419
G1 X68.380 Y78.849 E5.09932
G1 X68.483 Y78.746 E5.10154
G1 X71.663 Y78.746 E5.15023
G1 X71.868 Y78.541 E5.15467
G1 X71.867 Y78.066 E5.16194
G1 X71.970 Y77.963 E5.16416
G1 X79.558 Y77.963 E5.28035
G1 X79.763 Y77.758 E5.28479
G1 X79.763 Y76.625 E5.30214
G1 X79.558 Y76.420 E5.30658
G1 X71.967 Y76.420 E5.42281
G1 X71.865 Y76.318 E5.42503
G1 X71.865 Y75.911 E5.43125
G1 X71.660 Y75.706 E5.43569
G1 X68.483 Y75.706 E5.48433
G1 X68.380 Y75.604 E5.48655
G1 X68.380 Y75.269 E5.49168
G1 X68.483 Y75.166 E5.49390
G1 X71.659 Y75.166 E5.54253
G1 X71.864 Y74.961 E5.54698
G1 X71.864 Y74.499 E5.55404
G1 X71.966 Y74.397 E5.55626
G1 X79.719 Y74.397 E5.67498
G1 X79.915 Y74.231 E5.67890
G1 X79.989 Y73.791 E5.68574
G1 X80.040 Y73.681 E5.68760
G1 X80.195 Y73.508 E5.69115
G1 X80.317 Y73.440 E5.69330
G1 X82.782 Y72.877 E5.73202
G1 X85.475 Y72.174 E5.77463
G1 X89.523 Y72.171 E5.83661
G1 X92.210 Y72.889 E5.87920
G1 X94.772 Y73.480 E5.91946
G1 X94.959 Y73.664 E5.92348
G1 X95.016 Y73.770 E5.92531
G1 X95.100 Y74.251 E5.93280
G1 X95.112 Y74.650 E5.93890
G1 X95.317 Y74.855 E5.94334
G1 X103.038 Y74.855 E6.06157
G1 X103.141 Y74.957 E6.06379
G1 X103.141 Y75.160 E6.06689
G1 X103.346 Y75.365 E6.07133
G1 X106.657 Y75.365 E6.12203
G1 X106.759 Y75.468 E6.12425
G1 X106.759 Y75.803 E6.12938
G1 X106.657 Y75.905 E6.13160
G1 X103.345 Y75.905 E6.18231
G1 X103.140 Y76.110 E6.18675
G1 X103.139 Y76.319 E6.18994
G1 X103.037 Y76.421 E6.19216
G1 X95.455 Y76.421 E6.30826
G1 X95.250 Y76.626 E6.31270
G1 X95.250 Y77.757 E6.33003
G1 X95.455 Y77.962 E6.33447
G1 X103.035 Y77.962 E6.45053
G1 X103.137 Y78.065 E6.45275
G1 X103.137 Y78.253 E6.45562
G1 X103.342 Y78.458 E6.46006
G1 X106.657 Y78.458 E6.51082
G1 X106.759 Y78.560 E6.51304
G1 X106.759 Y78.896 E6.51817
G1 X106.657 Y78.998 E6.52039
G1 X103.341 Y78.998 E6.57116
G1 X103.136 Y79.203 E6.57559
G1 X103.136 Y79.482 E6.57987
G1 X103.033 Y79.584 E6.58208
G1 X95.369 Y79.584 E6.69944
G1 F1800.000 E5.74944
G1 Z0.700 F11400.000
G92 E0
G1 X62.619 Y91.802 F11400.000
G1 Z0.400 F11400.000
G1 E0.95000 F1800.000
G1 X63.049 Y92.868 E0.96759 F1620.000
G1 X63.017 Y93.048 E0.97039
G1 X63.399 Y93.926 E0.98505
G1 X63.508 Y94.240 E0.99015
G1 X63.656 Y95.192 E1.00490
G1 X63.133 Y95.798 E1.01717
G1 X61.214 Y95.798 E1.04655
G1 X60.701 Y95.286 E1.05765
G1 X60.701 Y92.265 E1.10391
G1 X61.238 Y91.749 E1.11531
G1 X62.566 Y91.800 E1.13567
G1 X62.379 Y92.143 F11400.000
G1 X62.637 Y92.783 E1.14622 F1620.000
G1 X62.603 Y92.974 E1.14920
G1 X63.075 Y94.059 E1.16732
G1 X63.172 Y94.338 E1.17184
G1 X63.286 Y95.084 E1.18340
G1 X62.972 Y95.448 E1.19077
G1 X61.359 Y95.448 E1.21547
G1 X61.051 Y95.141 E1.22213
G1 X61.051 Y92.414 E1.26389
G1 X61.373 Y92.104 E1.27073
G1 X62.327 Y92.141 E1.28534
G1 X62.139 Y92.484 F11400.000
G1 X62.225 Y92.697 E1.28886 F1620.000
G1 X62.189 Y92.900 E1.29201
G1 X62.751 Y94.192 E1.31359
G1 X62.836 Y94.437 E1.31755
G1 X62.917 Y94.977 E1.32592
G1 X62.812 Y95.098 E1.32837
G1 X61.504 Y95.098 E1.34841
G1 X61.401 Y94.996 E1.35063
G1 X61.401 Y92.563 E1.38788
G1 X61.509 Y92.460 E1.39016
G1 X62.087 Y92.482 E1.39903
G1 F1800.000 E0.44903
G1 Z0.700 F11400.000
G92 E0
G1 X62.619 Y103.384 F11400.000
G1 Z0.400 F11400.000
G1 E0.95000 F1800.000
G1 X61.239 Y103.439 E0.97115 F1620.000
G1 X60.701 Y102.923 E0.98256
G1 X60.701 Y99.899 E1.02886
G1 X61.214 Y99.387 E1.03996
G1 X63.133 Y99.387 E1.06934
G1 X63.656 Y99.993 E1.08161
G1 X63.508 Y100.945 E1.09636
G1 X63.399 Y101.259 E1.10145
G1 X63.016 Y102.140 E1.11615
G1 X63.048 Y102.319 E1.11895
G1 X62.638 Y103.336 E1.13573
G1 X62.379 Y103.044 F11400.000
G1 X61.374 Y103.084 E1.15113 F1620.000
G1 X61.051 Y102.774 E1.15798
G1 X61.051 Y100.044 E1.19977
G1 X61.359 Y99.737 E1.20643
G1 X62.972 Y99.737 E1.23114
G1 X63.286 Y100.101 E1.23850
G1 X63.171 Y100.847 E1.25006
G1 X63.075 Y101.126 E1.25458
G1 X62.602 Y102.214 E1.27274
G1 X62.636 Y102.404 E1.27571
G1 X62.398 Y102.995 E1.28546
G1 X62.139 Y102.703 F11400.000
G1 X61.509 Y102.728 E1.29512 F1620.000
G1 X61.401 Y102.625 E1.29740
G1 X61.401 Y100.189 E1.33469
G1 X61.504 Y100.087 E1.33691
G1 X62.812 Y100.087 E1.35695
G1 X62.917 Y100.208 E1.35940
G1 X62.835 Y100.748 E1.36777
G1 X62.751 Y100.993 E1.37173
G1 X62.189 Y102.288 E1.39335
G1 X62.225 Y102.490 E1.39649
G1 X62.158 Y102.654 E1.39921
G1 F1800.000 E0.44921
G1 Z0.700 F11400.000
G92 E0
G1 X72.039 Y75.436 F11400.000
G1 Z0.400 F11400.000
G1 E0.95000 F1800.000
G1 X68.555 Y75.436 E1.00335 F945.000
G1 F1800.000 E0.05335
G1 Z0.700 F11400.000
G92 E0
G1 X106.584 Y75.635 F11400.000
G1 Z0.400 F11400.000
G1 E0.95000 F1800.000
G1 X102.965 Y75.635 E1.00541 F945.000
G1 F1800.000 E0.05541
G1 Z0.700 F11400.000
G92 E0
G1 X106.584 Y78.728 F11400.000
G1 Z0.400 F11400.000
G1 E0.95000 F1800.000
G1 X103.057 Y78.728 E1.00401 F945.000
G1 X102.962 Y78.633 E1.00607
G1 F1800.000 E0.05607
G1 Z0.700 F11400.000
G92 E0
G1 X72.043 Y79.016 F11400.000
G1 Z0.400 F11400.000
G1 E0.95000 F1800.000
G1 X68.555 Y79.016 E1.00340 F945.000
G1 F1800.000 E0.05340
G1 Z0.700 F11400.000
G92 E0
G1 X94.761 Y79.234 F11400.000
G1 Z0.400 F11400.000
G1 E0.95000 F1800.000
G1 X94.753 Y80.128 E0.96369 F945.000
G1 X94.681 Y80.553 E0.97029
G1 X94.591 Y80.651 E0.97232
G1 X91.651 Y81.426 E1.01888
G1 X89.479 Y81.932 E1.05303
G1 X85.529 Y81.932 E1.11351
G1 X83.112 Y81.372 E1.15149
G1 X80.426 Y80.658 E1.19406
G1 X80.332 Y80.557 E1.19618
G1 X80.251 Y80.050 E1.20404
G1 X80.251 Y79.694 E1.20948
G1 X72.219 Y79.694 E1.33248
G1 X72.218 Y78.313 E1.35362
G1 X80.113 Y78.313 E1.47451
G1 X80.113 Y76.070 E1.50887
G1 X72.215 Y76.070 E1.62980
G1 X72.214 Y74.747 E1.65006
G1 X80.251 Y74.747 E1.77312
G1 X80.250 Y74.387 E1.77863
G1 X80.330 Y73.878 E1.78652
G1 X80.426 Y73.773 E1.78871
G1 X82.862 Y73.217 E1.82697
G1 X85.531 Y72.521 E1.86920
G1 X89.479 Y72.521 E1.92965
G1 X92.122 Y73.228 E1.97155
G1 X94.606 Y73.797 E2.01056
G1 X94.683 Y73.881 E2.01231
G1 X94.753 Y74.295 E2.01873
G1 X94.762 Y75.205 E2.03267
G1 X102.791 Y75.205 E2.15560
G1 X102.790 Y76.071 E2.16887
G1 X94.900 Y76.071 E2.28968
G1 X94.900 Y78.312 E2.32400
G1 X102.787 Y78.312 E2.44477
G1 X102.786 Y79.234 E2.45888
G1 X94.814 Y79.234 E2.58095
G1 X94.411 Y79.232 F11400.000
G1 F1800.000 E1.63095
G1 Z0.700 F11400.000
G92 E0
G1 X80.601 Y79.344 F11400.000
G1 Z0.400 F11400.000
G1 E0.95000 F1800.000
G1 X72.568 Y79.344 E1.07299 F1215.000
G1 X72.568 Y78.663 E1.08342
G1 X80.463 Y78.663 E1.20431
G1 X80.463 Y75.720 E1.24938
G1 X72.565 Y75.720 E1.37032
G1 X72.564 Y75.097 E1.37986
G1 X80.601 Y75.097 E1.50292
G1 X80.600 Y74.404 E1.51352
G1 X80.651 Y74.078 E1.51858
G1 X82.945 Y73.558 E1.55461
G1 X85.576 Y72.871 E1.59624
G1 X89.433 Y72.871 E1.65529
G1 X92.037 Y73.568 E1.69658
G1 X94.367 Y74.111 E1.73321
G1 X94.413 Y74.407 E1.73779
G1 X94.412 Y75.555 E1.75536
G1 X94.550 Y75.555 E1.75747
G1 X94.550 Y78.884 E1.80846
G1 X94.412 Y78.884 E1.81057
G1 X94.411 Y80.030 E1.82811
G1 X94.361 Y80.348 E1.83305
G1 X91.567 Y81.086 E1.87730
G1 X89.439 Y81.582 E1.91076
G1 X85.569 Y81.582 E1.97001
G1 X83.197 Y81.033 E2.00729
G1 X80.653 Y80.357 E2.04760
G1 X80.601 Y80.032 E2.05263
G1 X80.601 Y79.397 E2.06237
G1 X80.951 Y80.074 F11400.000
G1 X80.950 Y78.994 E2.07890 F1215.000
G1 X80.813 Y78.994 E2.08101
G1 X80.813 Y75.447 E2.13532
G1 X80.951 Y75.447 E2.13745
G1 X80.950 Y74.369 E2.15395
G1 X83.028 Y73.898 E2.18658
G1 X85.621 Y73.221 E2.22761
G1 X89.387 Y73.221 E2.28527
G1 X91.952 Y73.907 E2.32594
G1 X94.063 Y74.400 E2.35912
G1 X94.062 Y75.905 E2.38216
G1 X94.200 Y75.905 E2.38427
G1 X94.200 Y78.534 E2.42454
G1 X94.062 Y78.534 E2.42665
G1 X94.061 Y80.065 E2.45009
G1 X91.482 Y80.747 E2.49094
G1 X89.398 Y81.232 E2.52370
G1 X85.609 Y81.232 E2.58173
G1 X83.281 Y80.693 E2.61831
G1 X81.002 Y80.088 E2.65442
G1 X81.236 Y79.905 F11400.000
G1 X81.188 Y79.857 E2.65550 F2025.000
G1 X81.187 Y79.330 E2.66388
G1 X81.952 Y80.095 E2.68108
G1 X82.668 Y80.285 E2.69287
G1 X81.050 Y78.667 E2.72928
G1 X81.050 Y78.141 E2.73765
G1 X83.381 Y80.473 E2.79012
G1 X84.065 Y80.631 E2.80130
G1 X81.050 Y77.616 E2.86917
G1 X81.050 Y77.090 E2.87753
G1 X84.749 Y80.790 E2.96079
G1 X85.433 Y80.948 E2.97197
G1 X81.050 Y76.565 E3.07062
G1 X81.050 Y76.039 E3.07899
G1 X86.006 Y80.995 E3.19053
G1 X86.531 Y80.995 E3.19889
G1 X81.188 Y75.652 E3.31914
G1 X81.188 Y75.126 E3.32751
G1 X87.057 Y80.995 E3.45960
G1 X87.583 Y80.995 E3.46797
G1 X81.187 Y74.600 E3.61190
G1 X81.582 Y74.468 E3.61851
G1 X88.108 Y80.995 E3.76540
G1 X88.634 Y80.995 E3.77376
G1 X82.010 Y74.371 E3.92283
G1 X82.439 Y74.274 E3.92982
G1 X89.160 Y80.995 E4.08108
G1 X89.626 Y80.936 E4.08856
G1 X82.867 Y74.177 E4.24067
G1 X83.290 Y74.074 E4.24759
G1 X90.052 Y80.837 E4.39978
G1 X90.478 Y80.737 E4.40675
G1 X83.707 Y73.965 E4.55915
G1 X84.123 Y73.857 E4.56601
G1 X90.905 Y80.638 E4.71862
G1 X91.331 Y80.539 E4.72559
G1 X84.540 Y73.748 E4.87842
G1 X84.957 Y73.639 E4.88527
G1 X91.749 Y80.431 E5.03813
G1 X92.165 Y80.321 E5.04497
G1 X85.374 Y73.530 E5.19780
G1 X85.827 Y73.458 E5.20510
G1 X92.581 Y80.211 E5.35709
G1 X92.996 Y80.102 E5.36393
G1 X86.353 Y73.458 E5.51344
G1 X86.879 Y73.458 E5.52181
G1 X93.412 Y79.992 E5.66884
G1 X93.809 Y79.863 E5.67548
G1 X87.404 Y73.458 E5.81962
G1 X87.930 Y73.458 E5.82798
G1 X93.825 Y79.353 E5.96065
G1 X93.825 Y78.828 E5.96901
G1 X88.455 Y73.458 E6.08985
G1 X88.981 Y73.458 E6.09821
